X:1
T:Justus es Domine
T:Heinrich Isaac edit BMarble
T:Justus es Domine
T:Copyright © 2015 by CPDL.  This edition can be fully distributed, duplicated, performed, and recorded. 
T:Copyright © 2015 by CPDL.  This edition can be fully distributed, duplicated, performed, and recorded. 
T:Copyright © 2015 by CPDL.  This edition can be fully distributed, duplicated, performed, and recorded. 
T:Copyright © 2015 by CPDL.  This edition can be fully distributed, duplicated, performed, and recorded. 
T:Copyright © 2015 by CPDL.  This edition can be fully distributed, duplicated, performed, and recorded. 
T:Copyright © 2015 by CPDL.  This edition can be fully distributed, duplicated, performed, and recorded. 
C:Heinrich Isaac
C:edit BMarble
Z:Copyright © 2015 by CPDL.  This edition can be fully distributed, duplicated, performed, and recorded.
Z:
%%score [ 1 2 3 4 ]
L:1/8
Q:1/2=96
M:4/4
K:G
V:1 treble nm="Soprano" snm="S."
V:2 treble nm="Alto" snm="A."
V:3 treble-8 transpose=-12 nm="Tenor" snm="T."
V:4 bass nm="Baritone" snm="Bar."
V:1
"^Introit, 17th S. after Pentecost: Psalm 119:You are just, O Lord, and your judgment is right; deal with your servant according to your mercy.   Vs: Blessed are those whose way is blameless; who walk in the law of the Lord." z24 || %1
w: |
[M:4/2] z16 | z16 | G8 (A8 | B8) B8 | z8 B8 | (B8 d8) | (A8 G8) | B8 (G6 A2) | (B6 A2 B2 ^c2 d4-) | %10
w: ||et re-|* ctum|ju-|di- *|ci- *|um, ju- *|di- * * * *|
 d2 ^c2 B8 ^A4 | B16- | B16- | B16- | B16- | B16- | B16 | z16 | z16 | G8 A8 | G8 (G8 | B8) A8 | %22
w: * ci- um tu-|um:|_|||||||mi- se-|ri- cor-|* di-|
 G8 A8 | G8 F8 | E8 F4 G4- | G4 F2 E2 F4 G4- | (G2 F2 E8 ^D4) | E16 |] z22 | z22 ||[M:4/2] z16 | %31
w: am tu-|am, mi-|se- ri- cor-|* di- * am tu-||am.||||
 (A8 G8) | (A8 B8-) | B4 B4 B8 | z4 B4 (B8 | d6 c2) B8 | (A8 G8) | G8 F4 G4- | (G2 F2 E8) ^D4 | %39
w: qui _|am- *|* bu- lant|in le-|* * ge|Do- *|mi- ni, Do-|* * * mi-|
 E16 || z26 | z24 ||[M:4/2] z16 | (A8 G8) | A8 B8- | B4 B4 B4 B4 | B4 B4 B8 | z4 B4 B8 | %48
w: ni.||||Si- *|cut e-|* rat in prin-|ci- pi- o,|et in|
 (d6 c2) B8 | A8 G8 | G8 F4 G4- | G2 F2 E8 ^D4 | E16 |] %53
w: sae- * cu-|la sae-|cu- lo- rum.|_ _ A- *|men.|
V:2
 z24 ||[M:4/2] G,8 (A,8 | B,8) C8 | (B,8 E8) | D8 G8 | F4 (G8 F2 E2 | D12) E4 | F8 (B,6 ^C2 | %8
w: |et re-|* ctum|ju- *|di- ci-|um, ju- * *|* di-|ci- um _|
 D4) E4 B,8 | z16 | z8 F8 | D8 G8 | F4 G8 F2 E2 | D6 E2 F8 | E8 z4 G4 | E4 G8 F2 E2 | (D6 E2 F8) | %17
w: _ tu- um:||fac|cum ser-|vo tu- * *||o, fac|cum ser- vo _|tu- * *|
 E8 z8 | z4 G4 F4 G4- | (G2 F2 E8) ^D4 | E4 (B,6 A,2 G,2 F,2) | (G,2 E,2 E8) ^D4 | (E8 F4) =D4- | %23
w: o|se- cun- dum|_ _ _ mi-|se- ri- * * *|cor- * * di-|am _ tu-|
 D4 ^C4 D8 | B,8 ^C4 E4- | E2 D2 ^C2 B,2 D8 | (G,6 A,2 B,8) | B,16 |] z22 | z22 ||[M:4/2] z16 | %31
w: * um, mi-|se- ri- cor-|* * di- * am|tu- * *|am.||||
 E8 z4 E4- | (E4 F4 G4) G4 | G8 z4 D4 | B,4 D6 C2 B,2 A,2 | G,4 G8 F2 E2 | F8 D8 | E8 (A,4 G,4 | %38
w: qui am-|* * * bu-|lant in|le- ge _ _ _|_ Do- * *|* mi-|ni, Do- *|
 B,4) C4 (B,8 | B,16) || z26 | z24 ||[M:4/2] z16 | E8 E4 E4- | E4 F4 G4 G4 | G8 z4 D4 | %46
w: * mi- ni.|_||||Si- cut in|_ prin- ci- pi-|o, et|
 B,4 D6 C2 B,2 A,2 | B,4 D6 C2 B,2 A,2 | G,4 G8 F2 E2 | F8 D8 | E8 A,4 G,4 | B,4 C4 B,8 | B,16 |] %53
w: nunc, et _ _ _|_ sem- * * *|per, et in *|sae- cu-|la sae- cu-|lo- rum. A-|men.|
V:3
 (E2 B2 c2) B2 B2 B2 (A2 G2) G8 ||[M:4/2] z16 | G8 (A8 | B8) c8 | (B8 e8) | d4 (e8 d2 ^c2) | %6
w: Ju- * * stus es Do- mi- * ne,||et re-|* ctum|ju- *|di- ci- * *|
 B8 z4 B4 | (^c4 d4) e8 | B8 e8 | d4 e4 B6 ^c2 | (d4 e4) ^c8 | B16 | z8 B8 | d8 (d8 | e8) e8 | %15
w: um, ju-|di- * ci-|um tu-|um, ju- di- ci-|um _ tu-|um:|fac|cum ser-|* vo|
 e8 (e8 | f8) (d8 | B8 d8) | d8 ^c4 d4- | d2 ^c2 (B8 A4) | B16 | z16 | z16 | G8 A8 | G8 (A4 B4-) | %25
w: tu- o|_ se-||cun- dum, se-|* * cun- *|dum|||mi- se-|ri- cor- *|
 B4 A2 G2 (A4 B4) | (E8 F8) | E16 |] G2 (A2 B2) B2 B2 B2 B2 (B2 d2) B2 B2 | (B2 A2) (A4 B8) x6 || %30
w: * di- * am _|tu- *|am.|Be- a- * ti im- ma- cu- la- * ti in|vi- * a: _|
[M:4/2] (A8 G8) | (A8 B8 | c8) B4 d4- | d2 c2 B2 A2 G8 | z4 d4 B4 d4- | d2 c2 B2 A2 G8 | %36
w: qui _|am- *|* bu- lant|_ _ _ _ _|in le- ge|_ _ _ _ _|
 z4 d4 (B4 G4 | B4) ^c4 d2 =c2 B2 A2 | G4 A4 (F8 | E16) || G2 (A2 B2) B2 B2 B2 B2 B2 B2 B4 B2 B2 | %41
w: in le- *|* ge Do- * * *|* mi- ni.|_|Glo- ri- * a Pa- tri et Fi- li- o et Spi-|
 (B2 d2) B2 B2 (B2 A2) (A4 B8) ||[M:4/2] (A8 G8) | A8 B8 | c4 c4 B4 d4- | d2 c2 B2 A2 G8 | %46
w: ri- * tu- i San- * cto: _|Si- *|cut e-|rat in prin- ci-|* * pi- * o,|
 z4 d4 B4 d4- | d2 c2 B2 A2 G4 d4- | d2 c2 B2 A2 G4 G4 | d8 B4 G4 | B4 ^c4 d2 =c2 B2 A2 | %51
w: et nunc, et|_ _ sem- * per, et|_ _ _ _ _ in|sae- cu- la|sae- cu- lo- * * *|
 G4 A4 F8 | E16 |] %53
w: * rum. A-|men.|
V:4
 z24 ||[M:4/2] z16 | z16 | z16 | z16 | z16 | z4 (B,6 A,2) G,4 | F,8 E,8 | z4 (E,8 D,2 ^C,2 | %9
w: ||||||ju- * di-|ci- um,|ju- * *|
 B,,4) (E,2 F,2 G,6) A,2 | B,4 E,4 F,8 | z4 B,,4 (E,8 | D,4) (E,8 D,2 ^C,2 | B,,8) B,8 | E,16- | %15
w: * di- * * ci-|um tu- um:|fac cum|_ ser- * *|* vo|tu-|
 E,16 | B,,16 | (E,2 F,2 G,2 A,2 B,8-) | B,4 G,4 A,4 B,4- | B,2 A,2 G,4 F,8 | %20
w: |o|se- * * * *|* cun- dum, se-|* * cun- dum|
 (E,6 F,2 G,2 A,2 B,4) | (E,4 G,4) F,8 | (E,4 G,4) D,4 F,4 | E,8 D,8 | z8 z4 E,4- | %25
w: mi- * * * *|se- * ri-|cor- * di- am|tu- am,|mi-|
 (E,4 F,4) D,4 B,,4 | E,4 =C,4 B,,8 | E,16 |] z22 | z22 ||[M:4/2] z16 | (A,8 E,8 | A,8) G,4 G,4 | %33
w: * * se- ri-|cor- diam tu-|am.||||qui _|_ am- bu-|
 G,8 z4 G,4 | G,8 G,8 | G,8 G,8 | D,8 z4 G,4- | (G,2 F,2) E,4 D,4 E,4- | E,2 D,2 C,2 A,,2 (B,,8 | %39
w: lant in|le- ge|Do- mi-|ni, in|_ _ le- ge Do-|* * mi- * ni.|
 E,16) || z26 | z24 ||[M:4/2] z16 | A,8 E,8 | A,8 G,8 | G,4 G,4 G,8- | G,4 G,4 G,4 G,4 | G,8 G,8 | %48
w: _||||Si- cut|e- rat|in prin- ci-|* pi- o, et|nunc, et|
 G,8 G,8 | D,4 D,4 G,4 G,4- | G,2 F,2 E,4 D,4 E,4 | E,2 D,2 C,2 A,,2 B,,8 | E,16 |] %53
w: sem- per,|et in sae- cu-|* * la sae- cu-|lo- * rum. _ A-|men.|

